assets/images/clarity_date-solid.svg

<svg width="32" height="32" viewBox="0 0 32 32" fill="none" xmlns="http://www.w3.org/2000/svg">
<path d="M28.6666 5.33335H25.1111V8.00002C25.1111 8.25683 25.0605 8.51112 24.9622 8.74838C24.864 8.98564 24.7199 9.20122 24.5383 9.38281C24.3567 9.5644 24.1412 9.70844 23.9039 9.80672C23.6666 9.90499 23.4123 9.95558 23.1555 9.95558C22.8987 9.95558 22.6444 9.90499 22.4072 9.80672C22.1699 9.70844 21.9543 9.5644 21.7727 9.38281C21.5912 9.20122 21.4471 8.98564 21.3488 8.74838C21.2506 8.51112 21.2 8.25683 21.2 8.00002V5.33335H10.8444V8.00002C10.8444 8.51867 10.6384 9.01607 10.2717 9.38281C9.90492 9.74955 9.40751 9.95558 8.88887 9.95558C8.37022 9.95558 7.87282 9.74955 7.50608 9.38281C7.13934 9.01607 6.93331 8.51867 6.93331 8.00002V5.33335H3.37776C3.16622 5.33095 2.95635 5.37098 2.76056 5.4511C2.56477 5.53121 2.38703 5.64978 2.23786 5.79978C2.08868 5.94978 1.97111 6.12817 1.89208 6.3244C1.81305 6.52064 1.77418 6.73073 1.77776 6.94224V26.8356C1.77422 27.0434 1.81166 27.2498 1.88793 27.4431C1.9642 27.6364 2.0778 27.8128 2.22225 27.9623C2.36671 28.1117 2.53918 28.2311 2.72981 28.3139C2.92045 28.3966 3.12552 28.441 3.33331 28.4445H28.6666C28.8744 28.441 29.0795 28.3966 29.2701 28.3139C29.4608 28.2311 29.6332 28.1117 29.7777 27.9623C29.9222 27.8128 30.0358 27.6364 30.112 27.4431C30.1883 27.2498 30.2257 27.0434 30.2222 26.8356V6.94224C30.2257 6.73446 30.1883 6.52801 30.112 6.33469C30.0358 6.14137 29.9222 5.96497 29.7777 5.81557C29.6332 5.66616 29.4608 5.54668 29.2701 5.46394C29.0795 5.3812 28.8744 5.33683 28.6666 5.33335V5.33335ZM8.88887 23.1111H7.11109V21.3334H8.88887V23.1111ZM8.88887 18.6667H7.11109V16.8889H8.88887V18.6667ZM8.88887 14.2222H7.11109V12.4445H8.88887V14.2222ZM14.2222 23.1111H12.4444V21.3334H14.2222V23.1111ZM14.2222 18.6667H12.4444V16.8889H14.2222V18.6667ZM14.2222 14.2222H12.4444V12.4445H14.2222V14.2222ZM19.5555 23.1111H17.7778V21.3334H19.5555V23.1111ZM19.5555 18.6667H17.7778V16.8889H19.5555V18.6667ZM19.5555 14.2222H17.7778V12.4445H19.5555V14.2222ZM24.8889 23.1111H23.1111V21.3334H24.8889V23.1111ZM24.8889 18.6667H23.1111V16.8889H24.8889V18.6667ZM24.8889 14.2222H23.1111V12.4445H24.8889V14.2222Z" fill="#3F3F40"/>
<path d="M8.88889 8.88888C9.12464 8.88888 9.35073 8.79523 9.51743 8.62853C9.68413 8.46183 9.77778 8.23574 9.77778 7.99999V2.66666C9.77778 2.43091 9.68413 2.20482 9.51743 2.03812C9.35073 1.87142 9.12464 1.77777 8.88889 1.77777C8.65314 1.77777 8.42705 1.87142 8.26035 2.03812C8.09365 2.20482 8 2.43091 8 2.66666V7.99999C8 8.23574 8.09365 8.46183 8.26035 8.62853C8.42705 8.79523 8.65314 8.88888 8.88889 8.88888Z" fill="#3F3F40"/>
<path d="M23.1111 8.88888C23.3469 8.88888 23.573 8.79523 23.7397 8.62853C23.9064 8.46183 24 8.23574 24 7.99999V2.66666C24 2.43091 23.9064 2.20482 23.7397 2.03812C23.573 1.87142 23.3469 1.77777 23.1111 1.77777C22.8754 1.77777 22.6493 1.87142 22.4826 2.03812C22.3159 2.20482 22.2222 2.43091 22.2222 2.66666V7.99999C22.2222 8.23574 22.3159 8.46183 22.4826 8.62853C22.6493 8.79523 22.8754 8.88888 23.1111 8.88888Z" fill="#3F3F40"/>
</svg>

<svg width="32" height="32" fill="none" xmlns="http://www.w3.org/2000/svg"><path d="M28.667 5.333H25.11V8a1.955 1.955 0 01-3.91 0V5.333H10.844V8a1.956 1.956 0 11-3.91 0V5.333H3.377a1.582 1.582 0 00-1.6 1.61v19.893a1.582 1.582 0 001.555 1.609h25.334a1.583 1.583 0 001.555-1.61V6.943a1.582 1.582 0 00-1.555-1.609zM8.889 23.111H7.11v-1.778h1.78v1.778zm0-4.444H7.11v-1.778h1.78v1.778zm0-4.445H7.11v-1.777h1.78v1.777zm5.333 8.89h-1.778v-1.779h1.778v1.778zm0-4.445h-1.778v-1.778h1.778v1.778zm0-4.445h-1.778v-1.777h1.778v1.777zm5.333 8.89h-1.777v-1.779h1.777v1.778zm0-4.445h-1.777v-1.778h1.777v1.778zm0-4.445h-1.777v-1.777h1.777v1.777zm5.334 8.89H23.11v-1.779h1.778v1.778zm0-4.445H23.11v-1.778h1.778v1.778zm0-4.445H23.11v-1.777h1.778v1.777z" fill="#3F3F40"/><path d="M8.889 8.889A.889.889 0 009.778 8V2.667a.889.889 0 10-1.778 0V8a.889.889 0 00.889.889zm14.222 0A.889.889 0 0024 8V2.667a.889.889 0 10-1.778 0V8a.889.889 0 00.89.889z" fill="#3F3F40"/></svg>
